X:42
T:Bunker Hill
M:4/4
L:1/8
R:reel
D:Altan: Blackwater
K:G
cA|GEEE D2DG|EGAB c2Bc|dBcA BGG2|ABcA d2cA|
GEEE D2DG|EGAB c2Bc|dBcA BGG2|ABcA d2:|
cA|Gcc2 ecc2|GccB cBAG|Add2 fdd2|AddB cBAG|
(3EFG AB cAdB|cAdB c2Bc|dBcA BGG2|ABcA d2:|
ag|fdd2 fdad|fadf a2gf|gee2 gebe|gbeg b2ag|
fdd2 dcAB|cAdB c2Bc|dBcA BGG2|ABcA d2:|
